X:1
T:Jesus, Thou My Only Refuge
T:Jesus, Thou My Only Refuge
T:Peter Philip Bilhorn
T:Ford Cyrinda Ottman, 1894
T:Public Domain Courtesy of the Cyber Hymnal™
T:Public Domain Courtesy of the Cyber Hymnal™
C:Peter Philip Bilhorn
Z:Public Domain
Z:Courtesy of the Cyber Hymnal™
%%score ( 1 2 ) ( 3 4 )
L:1/8
Q:1/4=100
M:4/4
K:Eb
V:1 treble 
V:2 treble 
V:3 bass 
V:4 bass 
V:1
 [GB]3 [GB] [^F=A][GB][_Ac][GB] | [Ge]4 [GB]4 | [DB]3 [DF] [Dc][EB][DF][FA] | [EG]6 z2 | %4
w: 1.~Je- sus, Thou my on- ly|re- fuge,|Rock of Ag- es, cleft for|me;|
w: 2.~Words and thoughts and best en-|dea- vor,|These for sin could not a-|tone;|
w: 3.~Ear- nest- ly I plead for|mer- cy;|Foul, I to the foun- tain|fly;|
w: 4.~In Thy pre- sence safe- ly|hide me,|While I draw this fleet- ing|breath;|
w: 5.~Hide me, oh, my Sav- ior,|hide me,|When I soar to worlds un-|known;|
w: 6.~Then, for- ev- er- more, dear|Sav- ior,|Rock of Ag- es, cleft for|me,|
 [GB]3 [GB] [^F=A][GB][_Ac][GB] | [Ge]4 [GB]4 | [DF]3 [FB] [Fd][Fe][Fd][Ec] | %7
w: As the storm clouds round me|ga- ther,|Let me hide my- self in|
w: From the sea now rag- ing|round me,|Thou canst save, and Thou a-|
w: In the blood shed for re-|demp- tion,|Wash me, Sav- ior, or I|
w: To the ha- ven sure- ly|guide me,|When mine eyes shall close in|
w: When I shall, in Thy great|glo- ry,|See Thee on Thy judg- ment|
w: Saved from death and sin and|sor- row,|Let me hide my- self in|
 !fermata!B6 !fermata!z2 ||"^Refrain" [GB]4 [Ge]4 | [Ac]4 [Ae]4 | [Gd]3 [Ge] [Af][Ad][DB][FA] | %11
w: Thee.||||
w: lone.||||
w: die.|Hide me,|hide me,|hide me; Oh, my Sav- ior,|
w: death.||||
w: throne.||||
w: Thee.||||
 [EA]4 [EG]4 | [GB]3 [EG] [EG][^CG][DA][EB] | (c2 e4) E[EF] | [EG] [EB]3 [DF]3 [DG] | E6 z2 |] %16
w: |||||
w: |||||
w: hide me;|While the stor- my bil- lows|roll, * Thou the|re- fuge of my|soul.|
w: |||||
w: |||||
w: |||||
V:2
 x8 | x8 | x8 | x8 | x8 | x8 | x8 | (D>DF>G A2) x2 || x8 | x8 | x8 | x8 | x8 | E6 E x | x8 | %15
 (B,2 C>=A, B,2) x2 |] %16
V:3
 [E,E]3 [E,E] [E,E][E,E][E,E][E,E] | [E,B,]4 (E2 B,2) | %2
 [B,,B,]3 [B,,B,] [B,,A,][B,,G,][B,,B,][D,B,] | [E,B,]6 z2 | [E,E]3 [E,E] [E,E][E,E][E,E][E,E] | %5
 [E,B,]4 (E2 B,2) | [F,B,]3 [F,D] [F,B,][F,C][F,B,][F,=A,] | (B,>B,D>E [DF]2) z2 || [E,E]4 [E,E]4 | %9
 [A,E]4 [A,C]4 | [B,,B,]3 [B,,B,] [D,B,][B,,B,][B,,B,][D,=B,] | [E,C]4 [E,B,]4 | %12
 [E,E]3 [E,B,] [E,B,][=E,B,][F,B,][G,B,] | (A,2 C4) [C,=A,][_C,A,] | %14
 [B,,B,] [B,,G,]3 [B,,A,]3 [B,,B,] | (G,2 A,>^F, G,2) z2 |] %16
V:4
 x8 | x4 E,4 | x8 | x8 | x8 | x4 E,4 | x8 | B,,6 x2 || x8 | x8 | x8 | x8 | x8 | =A,6 x2 | x8 | %15
 E,6 x2 |] %16

